svg/file/profile_fill.svg

<?xml version="1.0" encoding="UTF-8"?>
<svg width="24px" height="24px" viewBox="0 0 24 24" version="1.1" xmlns="http://www.w3.org/2000/svg" xmlns:xlink="http://www.w3.org/1999/xlink">
    <title>profile_fill</title>
    <g id="页面-1" stroke="none" stroke-width="1" fill="none" fill-rule="evenodd">
        <g id="File" transform="translate(0.000000, -336.000000)" fill-rule="nonzero">
            <g id="profile_fill" transform="translate(0.000000, 336.000000)">
                 <path d="M24,0 L24,24 L0,24 L0,0 L24,0 Z M12.5934901,23.257841 L12.5819402,23.2595131 L12.5108777,23.2950439 L12.4918791,23.2987469 L12.4918791,23.2987469 L12.4767152,23.2950439 L12.4056548,23.2595131 C12.3958229,23.2563662 12.3870493,23.2590235 12.3821421,23.2649074 L12.3780323,23.275831 L12.360941,23.7031097 L12.3658947,23.7234994 L12.3769048,23.7357139 L12.4804777,23.8096931 L12.4953491,23.8136134 L12.4953491,23.8136134 L12.5071152,23.8096931 L12.6106902,23.7357139 L12.6232938,23.7196733 L12.6232938,23.7196733 L12.6266527,23.7031097 L12.609561,23.275831 C12.6075724,23.2657013 12.6010112,23.2592993 12.5934901,23.257841 L12.5934901,23.257841 Z M12.8583906,23.1452862 L12.8445485,23.1473072 L12.6598443,23.2396597 L12.6498822,23.2499052 L12.6498822,23.2499052 L12.6471943,23.2611114 L12.6650943,23.6906389 L12.6699349,23.7034178 L12.6699349,23.7034178 L12.678386,23.7104931 L12.8793402,23.8032389 C12.8914285,23.8068999 12.9022333,23.8029875 12.9078286,23.7952264 L12.9118235,23.7811639 L12.8776777,23.1665331 C12.8752882,23.1545897 12.8674102,23.1470016 12.8583906,23.1452862 L12.8583906,23.1452862 Z M12.1430473,23.1473072 C12.1332178,23.1423925 12.1221763,23.1452606 12.1156365,23.1525954 L12.1099173,23.1665331 L12.0757714,23.7811639 C12.0751323,23.7926639 12.0828099,23.8018602 12.0926481,23.8045676 L12.108256,23.8032389 L12.3092106,23.7104931 L12.3186497,23.7024347 L12.3186497,23.7024347 L12.3225043,23.6906389 L12.340401,23.2611114 L12.337245,23.2485176 L12.337245,23.2485176 L12.3277531,23.2396597 L12.1430473,23.1473072 Z" id="MingCute" fill-rule="nonzero"></path>
                <path d="M20,3 C21.1046,3 22,3.89543 22,5 L22,19 C22,20.1046 21.1046,21 20,21 L4,21 C2.89543,21 2,20.1046 2,19 L2,5 C2,3.89543 2.89543,3 4,3 L20,3 Z M17,15 L7,15 C6.44772,15 6,15.4477 6,16 C6,16.5523 6.44772,17 7,17 L17,17 C17.5523,17 18,16.5523 18,16 C18,15.4477 17.5523,15 17,15 Z M10,7 L8,7 C6.94563773,7 6.08183483,7.81587733 6.00548573,8.85073759 L6,9 L6,11 C6,12.0543909 6.81587733,12.9181678 7.85073759,12.9945144 L8,13 L10,13 C11.0543909,13 11.9181678,12.18415 11.9945144,11.1492661 L12,11 L12,9 C12,7.94563773 11.18415,7.08183483 10.1492661,7.00548573 L10,7 Z M17,11 L14,11 C13.4477,11 13,11.4477 13,12 C13,12.51285 13.386027,12.9355092 13.8833761,12.9932725 L14,13 L17,13 C17.5523,13 18,12.5523 18,12 C18,11.48715 17.613973,11.0644908 17.1166239,11.0067275 L17,11 Z M10,9 L10,11 L8,11 L8,9 L10,9 Z M17,7 L14,7 C13.4477,7 13,7.44772 13,8 C13,8.55228 13.4477,9 14,9 L17,9 C17.5523,9 18,8.55228 18,8 C18,7.44772 17.5523,7 17,7 Z" id="形状" fill="#09244B"></path>
            </g>
        </g>
    </g>
</svg>

<svg xmlns="http://www.w3.org/2000/svg" width="24" height="24"><g fill="none" fill-rule="nonzero"><path d="M24 0v24H0V0h24ZM12.593 23.258l-.011.002-.071.035-.02.004-.014-.004-.071-.035c-.01-.004-.019-.001-.024.005l-.004.01-.017.428.005.02.01.013.104.074.015.004.012-.004.104-.074.012-.016.004-.017-.017-.427c-.002-.01-.009-.017-.017-.018Zm.265-.113-.013.002-.185.093-.01.01-.003.011.018.43.005.012.008.007.201.093c.012.004.023 0 .029-.008l.004-.014-.034-.614c-.003-.012-.01-.02-.02-.022Zm-.715.002a.023.023 0 0 0-.027.006l-.006.014-.034.614c0 .012.007.02.017.024l.015-.002.201-.093.01-.008.004-.011.017-.43-.003-.012-.01-.01-.184-.092Z"/><path fill="#09244B" d="M20 3a2 2 0 0 1 2 2v14a2 2 0 0 1-2 2H4a2 2 0 0 1-2-2V5a2 2 0 0 1 2-2h16Zm-3 12H7a1 1 0 1 0 0 2h10a1 1 0 1 0 0-2Zm-7-8H8a2 2 0 0 0-1.995 1.85L6 9v2a2 2 0 0 0 1.85 1.995L8 13h2a2 2 0 0 0 1.995-1.85L12 11V9a2 2 0 0 0-1.85-1.995L10 7Zm7 4h-3a1 1 0 0 0-.117 1.993L14 13h3a1 1 0 0 0 .117-1.993L17 11Zm-7-2v2H8V9h2Zm7-2h-3a1 1 0 1 0 0 2h3a1 1 0 1 0 0-2Z"/></g></svg>
